!!!!SEGMENT: pl-gd--ee-2628--007-020_stabile-annibale--sacrarum-modulationum-lux-perpetua-a-8.krn
!!!cenid: 15xx:1109
!!!COM: Stabile, Annibale
!!!COM-rismID: pe30009662
!!!CDT: ~1535-1595/04
!!!CNT: Italian
!!!GTL: Sacrarum modulationum
!!!OTL: Lux perpetua a 8
!!!OMV: 020
!!!PDT: 1585
!!!AGN:
!!!SMS-siglum: PL-GD
!!!SMS-shelfmark: Ee 2628
!!!SMS-shelfwork: 007-020 G
!!!SMS-variant:
!!!SMS-altvar:
!!!NIFC-rismSourceID: 990060529
!!!NIFC-islandoraID: pl-gd:66139
!!!URL-pdf-islandora: https://repozytorium.nifc.pl/islandora/object/pl-gd%3A66139/datastream/PDF/view
!!!URL-scan: https://polish.musicsources.pl/pl/lokalizacje/galeria/klocki-introligatorskie/673 @EN{Scan on Polish Music Sources Website} @PL{Skany w portalu Dziedzictwo Muzyki Polskiej w otwartym dostępie}
!!!ONB-nifc: UWAGA: Cantus: s. 102-113, Tenore: s. 258-269, Basso: s. 414-425, Quinto: s. 736-747, Sextus: s. 624-632. Dla głosu Alto proszę skorzystać z https://pbc.gda.pl/dlibra/publication/87583/edition/79412/content, s. 25-48. Uwaga: utwory podzielone wg spisu treści dostępnych na końcu ksiąg – proszę sprawdzać sąsiednie tytuły i zwracać uwagę na liczbę głosów. Głosy Quinto i Sextus proszę umieszczać wg ambitusu (może się różnić w zależności od utworu).
!!!AIN: 2 alto 2 bass 2 soprn 2 tenor
!!!key: G:mix
**kern	**text	**kern	**text	**kern	**text	**kern	**text	**kern	**text	**kern	**text	**kern	**text	**kern	**text
*group2	*	*group2	*	*group2	*	*group2	*	*group1	*	*group1	*	*group1	*	*group1	*
*part8	*part8	*part7	*part7	*part6	*part6	*part5	*part5	*part4	*part4	*part3	*part3	*part2	*part2	*part1	*part1
*staff8	*staff8	*staff7	*staff7	*staff6	*staff6	*staff5	*staff5	*staff4	*staff4	*staff3	*staff3	*staff2	*staff2	*staff1	*staff1
*I"BASSVS	*	*I"TENOR 2.	*	*I"TENOR	*	*I"ALTVS	*	*I"BASSVS P.	*	*I"ALTVS 2.	*	*I"CANTVS 2.	*	*I"CANTVS	*
*I'B 2	*	*I'T 2	*	*I'T 1	*	*I'A 1	*	*I'B 1	*	*I'A 2	*	*I'S 2	*	*I'S 1	*
*Ibass	*	*Itenor	*	*Itenor	*	*Ialto	*	*Ibass	*	*Ialto	*	*Isoprn	*	*Isoprn	*
*ICvox	*	*ICvox	*	*ICvox	*	*ICvox	*	*ICvox	*	*ICvox	*	*ICvox	*	*ICvox	*
*clefF4	*	*clefC4	*	*clefC4	*	*clefC3	*	*clefF3	*	*clefC3	*	*clefC1	*	*clefC1	*
*k[b-]	*	*k[b-]	*	*k[b-]	*	*k[b-]	*	*k[b-]	*	*k[b-]	*	*k[b-]	*	*k[b-]	*
*G:mix	*	*G:mix	*	*G:mix	*	*G:mix	*	*G:mix	*	*G:mix	*	*G:mix	*	*G:mix	*
*M2/1	*	*M2/1	*	*M2/1	*	*M2/1	*	*M2/1	*	*M2/1	*	*M2/1	*	*M2/1	*
*met(C)	*	*met(C)	*	*met(C)	*	*met(C)	*	*met(C)	*	*met(C)	*	*met(C)	*	*met(C)	*
=1-	=1-	=1-	=1-	=1-	=1-	=1-	=1-	=1-	=1-	=1-	=1-	=1-	=1-	=1-	=1-
!	!	!	!	!	!	!	!	!LO:TX:t=P:problem=przy kluczu BB- B-	!	!	!	!	!	!LO:N:acc=#	!
!LO:TX:a:i:t=Secundus Chorus. Oƈto vocum.	!	!LO:TX:a:i:t=Secundus Chorus. Oƈto vocum.	!	!LO:TX:a:i:t=Secundus Chorus. Oƈto vocum.	!	!LO:TX:a:i:t=Secundus Chorus. Oƈto vocum.	!	!LO:TX:a:i:t=Primus Chorus. Oƈto vocum.	!	!LO:TX:a:i:t=Primus Chorus. Oƈto vocum.	!	!LO:TX:a:i:t=Primus Chorus. Oƈto vocum.	!	!LO:TX:a:i:t=Primus Chorus. Oƈto vocum.	!
00r	.	00r	.	00r	.	00r	.	0G	LVx	0d	LVx	0g	LVx	0bn	LVx
=2-	=2-	=2-	=2-	=2-	=2-	=2-	=2-	=2-	=2-	=2-	=2-	=2-	=2-	=2-	=2-
.	.	.	.	.	.	.	.	1c	per-	1e	per-	1g	per-	1cc	per-
.	.	.	.	.	.	.	.	1.F	-pe-	1.f	-pe-	1.a	-pe-	1.cc	-pe-
=3-	=3-	=3-	=3-	=3-	=3-	=3-	=3-	=3-	=3-	=3-	=3-	=3-	=3-	=3-	=3-
00r	.	00r	.	00r	.	00r	.	.	.	.	.	.	.	.	.
.	.	.	.	.	.	.	.	2F/	-tu-	2f\	-tu-	2a\	-tu-	2cc\	-tu-
.	.	.	.	.	.	.	.	1F	-a	1f	-a	1a	-a	1cc	-a
=4-	=4-	=4-	=4-	=4-	=4-	=4-	=4-	=4-	=4-	=4-	=4-	=4-	=4-	=4-	=4-
.	.	.	.	.	.	.	.	1BB-	lu-	1f	lu-	1b-	lu-	1dd	lu-
.	.	.	.	.	.	.	.	1.F	-ce-	1.f	-ce-	4a\	-ce-	4cc\	-ce-
.	.	.	.	.	.	.	.	.	.	.	.	4g/	.	4b-y\	.
.	.	.	.	.	.	.	.	.	.	.	.	4f/	.	4a\	.
.	.	.	.	.	.	.	.	.	.	.	.	4g/	.	4g/	.
=5-	=5-	=5-	=5-	=5-	=5-	=5-	=5-	=5-	=5-	=5-	=5-	=5-	=5-	=5-	=5-
00r	.	00r	.	00r	.	00r	.	.	.	.	.	4a\	.	4f/	.
.	.	.	.	.	.	.	.	.	.	.	.	4b-\	.	4g/	.
.	.	.	.	.	.	.	.	2F/	-bit	2f\	-bit	2cc\	.	4a\	.
.	.	.	.	.	.	.	.	.	.	.	.	.	.	4b-\	.
.	.	.	.	.	.	.	.	1F	ſanƈ-	1f	ſanƈ-	1a	-bit	1.cc	.
=6-	=6-	=6-	=6-	=6-	=6-	=6-	=6-	=6-	=6-	=6-	=6-	=6-	=6-	=6-	=6-
.	.	.	.	.	.	.	.	1C	-tis	1e-X	-tis	1.g	ſanƈ-	.	.
.	.	.	.	.	.	.	.	.	.	.	.	.	.	2cc\	-bit
.	.	.	.	.	.	.	.	1.G	tu-	1.d	tu-	.	.	2.b-\	ſanƈ-
.	.	.	.	.	.	.	.	.	.	.	.	2g/	-tis	.	.
.	.	.	.	.	.	.	.	.	.	.	.	.	.	4b-\	-tis
=7-	=7-	=7-	=7-	=7-	=7-	=7-	=7-	=7-	=7-	=7-	=7-	=7-	=7-	=7-	=7-
1r	.	1r	.	1r	.	1r	.	.	.	.	.	2b-\	tu-	2g/	tu-
.	.	.	.	.	.	.	.	2F#X/	-is	2d\	-is	2a\	-is	2a\	-is
*	*	*	*	*	*	*	*	*	*	*	*	*	*	*custos:b	*
!	!	!	!	!	!	!	!	!	!	!	!	!	!	!LO:LB:g=original	!
!	!	!	!	!	!	!	!	!	!	!	!	!	!	!LO:N:acc=#	!
0GG	LVx	0G	LVx	0D	LVx	0d	LVx	1.G	do-	1.d	do-	1.g	do-	1.bn	do-
.	.	.	.	.	.	.	.	.	.	.	.	.	.	.	.
=8-	=8-	=8-	=8-	=8-	=8-	=8-	=8-	=8-	=8-	=8-	=8-	=8-	=8-	=8-	=8-
.	.	.	.	.	.	.	.	.	.	.	.	.	.	.	.
.	.	.	.	.	.	.	.	2G\	-mi-	2d\	-mi-	2g/	-mi-	2b\	-mi-
*	*	*	*	*	*	*	*	*	*	*	*	*custos:g	*	*	*
!	!	!	!	!	!	!	!	!	!	!	!	!LO:LB:g=original	!	!	!
1C	per-	2r	.	2r	.	1e	per-	1C	-ne	1c	-ne	1g	-ne	1cc	-ne
.	.	2c\	per-	2G/	per-	.	.	.	.	.	.	.	.	.	.
=9-	=9-	=9-	=9-	=9-	=9-	=9-	=9-	=9-	=9-	=9-	=9-	=9-	=9-	=9-	=9-
1.BB-	-pe-	1.d	-pe-	1.B-	-pe-	1.f	-pe-	00r	.	00r	.	00r	.	00r	.
2BB-/	-tu-	2d\	-tu-	2B-\	-tu-	2f\	-tu-	.	.	.	.	.	.	.	.
=10-	=10-	=10-	=10-	=10-	=10-	=10-	=10-	=10-	=10-	=10-	=10-	=10-	=10-	=10-	=10-
1BB-	-a	1d	-a	1B-	-a	1f	-a	.	.	.	.	.	.	.	.
1BB-	lu-	1B-	lu-	1d	lu-	1f	lu-	.	.	.	.	.	.	.	.
=11-	=11-	=11-	=11-	=11-	=11-	=11-	=11-	=11-	=11-	=11-	=11-	=11-	=11-	=11-	=11-
1.F	-ce-	4A/	-ce-	4c\	-ce-	1.f	-ce-	00r	.	00r	.	00r	.	00r	.
.	.	4G/	.	4B-\	.	.	.	.	.	.	.	.	.	.	.
.	.	4F/	.	4A/	.	.	.	.	.	.	.	.	.	.	.
.	.	4G/	.	4G/	.	.	.	.	.	.	.	.	.	.	.
.	.	4A/	.	4F/	.	.	.	.	.	.	.	.	.	.	.
.	.	4B-\	.	4G/	.	.	.	.	.	.	.	.	.	.	.
2F\	-bit	2c\	.	4A/	.	2f\	-bit	.	.	.	.	.	.	.	.
.	.	.	.	4B-\	.	.	.	.	.	.	.	.	.	.	.
=12-	=12-	=12-	=12-	=12-	=12-	=12-	=12-	=12-	=12-	=12-	=12-	=12-	=12-	=12-	=12-
2F\	ſanƈ-	1A	-bit	2c\	.	1f	ſanƈ-	.	.	.	.	.	.	.	.
2F\	-tis	.	.	2c\	-bit	.	.	.	.	.	.	.	.	.	.
1C	tu-	2.G/	ſanƈ-	2c\	ſanƈ-	1e-X	-tis	.	.	.	.	.	.	.	.
.	.	.	.	2c\	-tis	.	.	.	.	.	.	.	.	.	.
.	.	4G/	-tis	.	.	.	.	.	.	.	.	.	.	.	.
*	*	*custos:G	*	*custos:B	*	*	*	*	*	*	*	*	*	*	*
!	!	!LO:LB:g=original	!	!LO:LB:g=original	!	!	!	!	!	!	!	!	!	!	!
=13-	=13-	=13-	=13-	=13-	=13-	=13-	=13-	=13-	=13-	=13-	=13-	=13-	=13-	=13-	=13-
1D	-is	2G/	tu-	2B-\	tu-	2d\	tu-	0r	.	0r	.	0r	.	0r	.
.	.	2F#X/	-is	2A/	-is	2d\	-is	.	.	.	.	.	.	.	.
2E-X\	do-	2G/	do-	2.G/	do-	2B-/	Do-	.	.	.	.	.	.	.	.
2E-\	-mi-	2G/	-mi-	.	.	2c/	-mi-	.	.	.	.	.	.	.	.
.	.	.	.	4G/	-mi-	.	.	.	.	.	.	.	.	.	.
*custos:D	*	*	*	*	*	*	*	*custos:D	*	*custos:d	*	*	*	*	*
!LO:LB:g=original	!	!	!	!	!	!	!	!LO:LB:g=original	!	!LO:LB:g=original	!	!	!	!	!
=14-	=14-	=14-	=14-	=14-	=14-	=14-	=14-	=14-	=14-	=14-	=14-	=14-	=14-	=14-	=14-
1D	-ne	1F#X	-ne	1A	-ne	1d	-ne	2r	.	2r	.	2r	.	2r	.
.	.	.	.	.	.	.	.	1D	Et	1d	Et	1f#X	Et	1a	Et
*	*	*	*	*	*	*custos:f	*	*	*	*	*	*	*	*	*
!	!	!	!	!	!	!LO:LB:g=original	!	!	!	!	!	!	!	!	!
1r	.	1r	.	1r	.	1r	.	.	.	.	.	.	.	.	.
!	!	!	!	!	!	!	!	!	!	!	!	!	!	!LO:N:acc=#	!
.	.	.	.	.	.	.	.	2G\	ae-	2d\	ae-	2g/	ae-	2bn\	ae-
=15-	=15-	=15-	=15-	=15-	=15-	=15-	=15-	=15-	=15-	=15-	=15-	=15-	=15-	=15-	=15-
00r	.	00r	.	00r	.	00r	.	2.Fny/	-ter-	2.f\	-ter-	2.a\	-ter-	2.cc\	-ter-
.	.	.	.	.	.	.	.	4F/	-ni-	4f\	-ni-	4a\	-ni-	4cc\	-ni-
.	.	.	.	.	.	.	.	2F/	-tas	2f\	-tas	2a\	-tas	2cc\	-tas
.	.	.	.	.	.	.	.	2.B-\	tem-	2.f\	tem-	2.b-\	tem-	2.dd\	tem-
.	.	.	.	.	.	.	.	.	.	.	.	.	.	.	.
=16-	=16-	=16-	=16-	=16-	=16-	=16-	=16-	=16-	=16-	=16-	=16-	=16-	=16-	=16-	=16-
.	.	.	.	.	.	.	.	.	.	.	.	.	.	.	.
.	.	.	.	.	.	.	.	4B-\	-po-	4f\	-po-	4b-\	-po-	4dd\	-po-
.	.	.	.	.	.	.	.	2F/	-rum.	2f\	-rum	2a\	-rum	2cc\	-rum
.	.	.	.	.	.	.	.	2G\	Al-	2d\	Al-	2g/	Al-	2b-y\	Al-
.	.	.	.	.	.	.	.	2E-X/	-le-	2e-X\	-le-	2g/	-le-	1cc\	-le-
=17-	=17-	=17-	=17-	=17-	=17-	=17-	=17-	=17-	=17-	=17-	=17-	=17-	=17-	=17-	=17-
0r	.	0r	.	0r	.	0r	.	0F	-lu-	2.d\	-lu-	0fny	-lu-	.	.
.	.	.	.	.	.	.	.	.	.	.	.	.	.	2.b-\	-lu-
.	.	.	.	.	.	.	.	.	.	8c/	.	.	.	.	.
.	.	.	.	.	.	.	.	.	.	8B-/	.	.	.	.	.
.	.	.	.	.	.	.	.	.	.	1c	.	.	.	.	.
.	.	.	.	.	.	.	.	.	.	.	.	.	.	4a\	.
.	.	.	.	.	.	.	.	.	.	.	.	.	.	2a\	.
=18-	=18-	=18-	=18-	=18-	=18-	=18-	=18-	=18-	=18-	=18-	=18-	=18-	=18-	=18-	=18-
2r	.	2r	.	2r	.	2r	.	1BB-	-ia	1B-	-ia	1f	-ia	1b-	-ia
1BB-	Al-	1d	Al-	1B-	Al-	1f	Al-	.	.	.	.	.	.	.	.
*	*	*	*	*	*	*	*	*	*	*	*	*	*	*custos:g	*
!	!	!	!	!	!	!	!	!	!	!	!	!	!	!LO:LB:g=original	!
.	.	.	.	.	.	.	.	0r	.	0r	.	0r	.	0r	.
2FF/	-le-	1c\	-le-	2A/	-le-	2f\	-le-	.	.	.	.	.	.	.	.
=19-	=19-	=19-	=19-	=19-	=19-	=19-	=19-	=19-	=19-	=19-	=19-	=19-	=19-	=19-	=19-
1GG	-lu-	.	.	1G	-lu-	1d	-lu-	.	.	.	.	.	.	.	.
!	!	!LO:N:acc=#	!	!	!	!	!	!	!	!	!	!	!	!	!
.	.	2Bn\	-lu-	.	.	.	.	.	.	.	.	.	.	.	.
1C	-ia	1c	-ia	1G	-ia	1eny	-ia	2r	.	2r	.	2r	.	2r	.
.	.	.	.	.	.	.	.	2C/	Lę-	2c/	Lę-	2e/	Lę-	2g/	Lę-
*	*	*	*	*	*	*	*	*	*	*custos:c	*	*custos:f	*	*	*
!	!	!	!	!	!	!	!	!	!	!LO:LB:g=original	!	!LO:LB:g=original	!	!	!
=20-	=20-	=20-	=20-	=20-	=20-	=20-	=20-	=20-	=20-	=20-	=20-	=20-	=20-	=20-	=20-
1r	.	1r	.	1r	.	1r	.	4F/	-ti-	4c/	-ti-	4f/	-ti-	4a\	-ti-
.	.	.	.	.	.	.	.	8F/	-ti-	8c/	-ti-	8f/	-ti-	8a\	-ti-
.	.	.	.	.	.	.	.	8F/	-a	8c/	-a	8f/	-a	8a\	-a
.	.	.	.	.	.	.	.	4F/	ſem-	4c/	ſem-	4f/	ſem-	4a\	ſem-
.	.	.	.	.	.	.	.	4Eny/	-pi-	4c/	-pi-	4g/	-pi-	4g/	-pi-
*	*	*	*	*	*	*	*	*custos:F	*	*	*	*	*	*	*
!	!	!	!	!	!	!	!	!LO:LB:g=original	!	!	!	!	!	!	!
2r	.	2r	.	2r	.	2r	.	2F/	-ter-	2c/	-ter-	2a\	-ter-	2f/	-ter-
!	!	!LO:N:acc=#	!	!	!	!	!	!	!	!LO:N:acc=#	!	!	!	!	!
2GG/	Lę-	2Bn\	Lę-	2G/	Lę-	2d\	lę-	2G\	-na	2Bn/	-na	2g/	-na	2d/	-na
=21-	=21-	=21-	=21-	=21-	=21-	=21-	=21-	=21-	=21-	=21-	=21-	=21-	=21-	=21-	=21-
4C/	-ti-	4c\	-ti-	4G/	-ti-	4e-X\	-ti-	1r	.	1r	.	1r	.	1r	.
8C/	-ti-	8c\	-ti-	8G/	-ti-	8e-\	-ti-	.	.	.	.	.	.	.	.
8C/	-a	8c\	-a	8G/	-a	8e-\	-a	.	.	.	.	.	.	.	.
4C/	ſem-	4c\	ſem-	4G/	ſem-	4e-\	ſem-	.	.	.	.	.	.	.	.
!LO:N:acc=#	!	!	!	!	!	!	!	!	!	!	!	!	!	!	!
4BBn/	-pi-	4d\	-pi-	4G/	-pi-	4d\	-pi-	.	.	.	.	.	.	.	.
*	*	*custos:e	*	*custos:G	*	*	*	*	*	*	*	*	*	*	*
!	!	!LO:LB:g=original	!	!LO:LB:g=original	!	!	!	!	!	!	!	!	!	!	!
2C/	-ter-	2e-X\	-ter-	2G/	-ter-	2c/	-ter-	2r	.	2r	.	2r	.	2r	.
*	*	*	*	*	*	*	*	*	*ij	*	*ij	*	*ij	*	*ij
2D/	-na	2d\	-na	2F#X/	-na	2A/	-na	2D/	Lę-	2d\	Lę-	2f#X/	Lę-	2a\	Lę-
=22-	=22-	=22-	=22-	=22-	=22-	=22-	=22-	=22-	=22-	=22-	=22-	=22-	=22-	=22-	=22-
1r	.	1r	.	1r	.	1r	.	4G\	-ti-	4d\	-ti-	4g/	-ti-	4b-\	-ti-
.	.	.	.	.	.	.	.	8G\	-ti-	8d\	-ti-	8g/	-ti-	8b-\	-ti-
.	.	.	.	.	.	.	.	8G\	-a	8d\	-a	8g/	-a	8b-\	-a
.	.	.	.	.	.	.	.	4G\	ſem-	4d\	ſem-	4g/	ſem-	4b-\	ſem-
.	.	.	.	.	.	.	.	4F#X/	-pi-	4d\	-pi-	4a\	-pi-	4a\	-pi-
!	!	!	!	!	!	!	!	!	!	!	!	!LO:N:acc=#	!	!	!
2r	.	2r	.	2r	.	2r	.	2G\	-ter-	2d\	-ter-	2bn\	-ter-	2g/	-ter-
1C/	ſu-	1c\	ſu-	1G/	ſu-	1eny\	ſu-	2C/	-na	2eny\	-na	2cc\	-na	2g/	-na
*	*	*	*	*	*	*	*	*	*Xij	*	*Xij	*	*Xij	*	*Xij
=23-	=23-	=23-	=23-	=23-	=23-	=23-	=23-	=23-	=23-	=23-	=23-	=23-	=23-	=23-	=23-
.	.	.	.	.	.	.	.	0r	.	0r	.	0r	.	0r	.
2AA/	-per	2c\	-per	2A/	-per	2f\	-per	.	.	.	.	.	.	.	.
*custos:BB	*	*	*	*	*	*custos:d	*	*	*	*	*	*	*	*	*
!LO:LB:g=original	!	!	!	!	!	!LO:LB:g=original	!	!	!	!	!	!	!	!	!
4.BB-/	ca-	4.B-y\	ca-	4Fny/	ca-	4.d\	ca-	.	.	.	.	.	.	.	.
.	.	.	.	4B-\	-pi-	.	.	.	.	.	.	.	.	.	.
8BB-/	-pi-	8d\	-pi-	.	.	8d\	-pi-	.	.	.	.	.	.	.	.
4C/	-ta	4c\	-ta	4A/	-ta	4e-X\	-ta	.	.	.	.	.	.	.	.
4C/	e-	4c\	e-	4G/	e-	4e-\	e-	.	.	.	.	.	.	.	.
=24-	=24-	=24-	=24-	=24-	=24-	=24-	=24-	=24-	=24-	=24-	=24-	=24-	=24-	=24-	=24-
2D/	-o-	2A/	-o-	2F#X/	-o-	2d\	-o-	2r	.	2r	.	2r	.	2r	.
!	!	!LO:N:acc=#	!	!	!	!	!	!	!	!	!	!	!	!LO:N:acc=#	!
2GG/	-rum	2Bn\	-rum	2G/	-rum	2d\	-rum	1G	ſu-	1d	ſu-	1g	ſu-	1bn	ſu-
1r	.	1r	.	1r	.	1r	.	.	.	.	.	.	.	.	.
.	.	.	.	.	.	.	.	2E/	-per	2c/	-per	2g/	-per	2cc\	-per
=25-	=25-	=25-	=25-	=25-	=25-	=25-	=25-	=25-	=25-	=25-	=25-	=25-	=25-	=25-	=25-
0r	.	0r	.	0r	.	0r	.	4.Fny/	ca-	4.c/	ca-	2.fny/	ca-	4.a\	ca-
.	.	.	.	.	.	.	.	8F/	-pi-	8c/	-pi-	.	.	8a\	-pi-
.	.	.	.	.	.	.	.	4D/	-ta	2d\	-ta	.	.	4b-y\	-ta
.	.	.	.	.	.	.	.	4D/	e-	.	.	4f/	-pi-	2a\	e-
.	.	.	.	.	.	.	.	2E-X/	-o-	2G/	e-	4B-/	-ta	.	.
.	.	.	.	.	.	.	.	.	.	.	.	4c/	e-	2g/	-o-
.	.	.	.	.	.	.	.	2D/	-rum	2A/	-o-	2d/	-o-	.	.
.	.	.	.	.	.	.	.	.	.	.	.	.	.	4f#X/	.
*	*	*	*	*	*	*	*	*	*	*custos:G	*	*custos:d	*	*custos:g	*
!	!	!	!	!	!	!	!	!	!	!LO:LB:g=original	!	!LO:LB:g=original	!	!LO:LB:g=original	!
=26-	=26-	=26-	=26-	=26-	=26-	=26-	=26-	=26-	=26-	=26-	=26-	=26-	=26-	=26-	=26-
*M3/2	*	*M3/2	*	*M3/2	*	*M3/2	*	*M3/2	*	*M3/2	*	*M3/2	*	*M3/2	*
*met(O|)	*	*met(O|)	*	*met(O|)	*	*met(O|)	*	*met(O|)	*	*met(O|)	*	*met(O|)	*	*met(O|)	*
!LO:TX:t=P:problem=oznaczenie menzuralne O| 3/2	!	!LO:TX:t=P:problem=oznaczenie menzuralne O| 3/2	!	!LO:TX:t=P:problem=oznaczenie menzuralne O| 3/2	!	!LO:TX:t=P:problem=oznaczenie menzuralne O| 3/2	!	!LO:TX:t=P:problem=oznaczenie menzuralne O| 3/2	!	!LO:TX:t=P:problem=oznaczenie menzuralne O| 3/2	!	!LO:TX:t=P:problem=oznaczenie menzuralne O| 3/2	!	!LO:TX:t=P:problem=oznaczenie menzuralne O| 3/2	!
1.G	Gau-	1.G	Gau-	1.B-	Gau-	1.d	Gau-	00.r	.	0G	-rum	0.d	-rum	0g	-rum
2G\	-di-	2B-y\	-di-	2G/	-di-	2d\	-di-	.	.	.	.	.	.	.	.
1F	-um	1A	-um	1A	-um	1d	-um	.	.	1r	.	.	.	1r	.
=27-	=27-	=27-	=27-	=27-	=27-	=27-	=27-	=27-	=27-	=27-	=27-	=27-	=27-	=27-	=27-
0E-X	et	0G	et	0B-	et	0g	et	.	.	0.r	.	0.r	.	0.r	.
1E-	e-	1G	e-	1c	e-	1g	e-	.	.	.	.	.	.	.	.
=28-	=28-	=28-	=28-	=28-	=28-	=28-	=28-	=28-	=28-	=28-	=28-	=28-	=28-	=28-	=28-
1D	-xul-	1A	-xul-	1d	-xul-	1f	-xul-	00.r	.	00.r	.	00.r	.	00.r	.
1C	-ta-	1c	-ta-	1G	-ta-	1e-X	-ta-	.	.	.	.	.	.	.	.
1BB-	-ti-	1d	-ti-	1B-	-ti-	1f	-ti-	.	.	.	.	.	.	.	.
=29-	=29-	=29-	=29-	=29-	=29-	=29-	=29-	=29-	=29-	=29-	=29-	=29-	=29-	=29-	=29-
0F	-o-	0c	-o-	0A	-o-	0f	-o-	.	.	.	.	.	.	.	.
1BB-	-nem	1B-	-nem	1B-	-nem	1f	-nem	.	.	.	.	.	.	.	.
=30-	=30-	=30-	=30-	=30-	=30-	=30-	=30-	=30-	=30-	=30-	=30-	=30-	=30-	=30-	=30-
00.r	.	00.r	.	00.r	.	00.r	.	1.B-	Gau-	1.d	Gau-	1.f	Gau-	1.dd	Gau-
.	.	.	.	.	.	.	.	2B-\	-di-	2B-y/	-di-	2f/	-di-	2dd\	-di-
.	.	.	.	.	.	.	.	1A	-um	1c	-um	1f	-um	1cc	-um
*	*	*	*	*	*	*	*	*custos:G	*	*	*	*	*	*	*
!	!	!	!	!	!	!	!	!LO:LB:g=original	!	!	!	!	!	!	!
=31-	=31-	=31-	=31-	=31-	=31-	=31-	=31-	=31-	=31-	=31-	=31-	=31-	=31-	=31-	=31-
*	*	*	*	*	*	*	*	*	*	*col	*	*	*	*	*
.	.	.	.	.	.	.	.	0G	et	0d	et	0g	et	0b-	et
.	.	.	.	.	.	.	.	1G	e-	1d	e-	1g	e-	1b-	e-
*	*	*	*	*	*	*	*	*	*	*Xcol	*	*	*	*	*
=32-	=32-	=32-	=32-	=32-	=32-	=32-	=32-	=32-	=32-	=32-	=32-	=32-	=32-	=32-	=32-
00.r	.	00.r	.	00.r	.	00.r	.	1F	-xul-	1d	-xul-	1a	-xul-	1a	-xul-
.	.	.	.	.	.	.	.	1E-X	-ta-	1G	-ta-	1b-y	-ta-	1g	-ta-
.	.	.	.	.	.	.	.	1D	-ti-	0B-	-ti-	1b-	-ti-	1fny	-ti-
=33-	=33-	=33-	=33-	=33-	=33-	=33-	=33-	=33-	=33-	=33-	=33-	=33-	=33-	=33-	=33-
.	.	.	.	.	.	.	.	0C	-o-	.	.	0cc	-o-	0e-X	-o-
.	.	.	.	.	.	.	.	.	.	1A	-o-	.	.	.	.
.	.	.	.	.	.	.	.	1BB-	-nem	1B-	-nem	1f	-nem	1d	-nem
*	*	*custos:G	*	*custos:G	*	*	*	*	*	*	*	*	*	*	*
!	!	!LO:LB:g=original	!	!LO:LB:g=original	!	!	!	!	!	!	!	!	!	!	!
=34-	=34-	=34-	=34-	=34-	=34-	=34-	=34-	=34-	=34-	=34-	=34-	=34-	=34-	=34-	=34-
*M2/1	*	*M2/1	*	*M2/1	*	*M2/1	*	*M2/1	*	*M2/1	*	*M2/1	*	*M2/1	*
*met(C)	*	*met(C)	*	*met(C)	*	*met(C)	*	*met(C)	*	*met(C)	*	*met(C)	*	*met(C)	*
00r	.	00r	.	00r	.	00r	.	2.BB-/	ob-	4B-/	ob-	2r	.	2r	.
.	.	.	.	.	.	.	.	.	.	4c/	.	.	.	.	.
*	*	*	*	*	*	*	*	*	*	*	*	*lig	*	*	*
.	.	.	.	.	.	.	.	.	.	4d\	.	1b-	ob-	2.f/	ob-
.	.	.	.	.	.	.	.	4C/	.	4e\	.	.	.	.	.
.	.	.	.	.	.	.	.	4D/	.	1.f	.	.	.	.	.
.	.	.	.	.	.	.	.	4Eny/	.	.	.	.	.	4g/	.
.	.	.	.	.	.	.	.	4F/	.	.	.	1a\	.	4a\	.
.	.	.	.	.	.	.	.	4G\	.	.	.	.	.	4b-\	.
*	*	*	*	*	*	*	*	*	*	*	*	*Xlig	*	*	*
=35-	=35-	=35-	=35-	=35-	=35-	=35-	=35-	=35-	=35-	=35-	=35-	=35-	=35-	=35-	=35-
.	.	.	.	.	.	.	.	2A\	.	.	.	.	.	2cc\	.
.	.	.	.	.	.	.	.	2B-\	-ti-	2d\	-ti-	2g/	-ti-	1dd	-ti-
.	.	.	.	.	.	.	.	1A	-ne-	1e	-ne-	1a	-ne-	.	.
.	.	.	.	.	.	.	.	.	.	.	.	.	.	2cc#X\	-ne-
=36-	=36-	=36-	=36-	=36-	=36-	=36-	=36-	=36-	=36-	=36-	=36-	=36-	=36-	=36-	=36-
2r	.	4G/	ob-	2r	.	2r	.	1G	-bunt	1g	-bunt	1b-	-bunt	1dd	-bunt
.	.	4A/	.	.	.	.	.	.	.	.	.	.	.	.	.
2.GG/	ob-	4B-\	.	4G/	ob-	1g	ob-	.	.	.	.	.	.	.	.
.	.	4c\	.	4A/	.	.	.	.	.	.	.	.	.	.	.
.	.	2d\	.	4B-\	.	.	.	2r	.	2.d\	ob-	2r	.	2r	.
4AA/	.	.	.	4c\	.	.	.	.	.	.	.	.	.	.	.
*	*	*	*	*	*	*	*	*	*ij	*	*	*	*	*	*ij
4BB-/	.	1D/	-ti-	1d\	.	4f\	.	1D/	ob-	.	.	1b-\	ob-	1dd\	ob-
4C/	.	.	.	.	.	4eny\	.	.	.	4e\	.	.	.	.	.
*custos:D	*	*	*	*	*	*custos:d	*	*	*	*custos:f	*	*	*	*	*
!LO:LB:g=original	!	!	!	!	!	!LO:LB:g=original	!	!	!	!LO:LB:g=original	!	!	!	!	!
=37-	=37-	=37-	=37-	=37-	=37-	=37-	=37-	=37-	=37-	=37-	=37-	=37-	=37-	=37-	=37-
2D/	.	.	.	.	.	2d\	.	.	.	2f\	.	.	.	.	.
2GG/	-ti-	1d	-ne-	2B-\	-ti-	2d\	-ti-	2G\	-ti-	1g	-ti-	2g/	-ti-	2dd\	-ti-
1D	-ne-	.	.	1A	-ne-	1d	-ne-	1D	-ne-	.	.	1a	-ne-	1dd	-ne-
.	.	2A/	-bunt	.	.	.	.	.	.	2f#X\	-ne-	.	.	.	.
*	*	*	*	*	*	*	*	*	*	*	*	*	*	*custos:dd	*
!	!	!	!	!	!	!	!	!	!	!	!	!	!	!LO:LB:g=original	!
=38-	=38-	=38-	=38-	=38-	=38-	=38-	=38-	=38-	=38-	=38-	=38-	=38-	=38-	=38-	=38-
!	!	!	!	!	!	!	!	!	!	!	!	!LO:N:acc=#	!	!	!
1GG	-bunt	1r	.	1G	-bunt	1d	-bunt	0G	-bunt	0g	-bunt	0bn	-bunt	0dd	-bunt
*	*	*	*	*	*	*	*	*	*Xij	*	*	*	*	*	*Xij
2r	.	2r	.	2r	.	2r	.	.	.	.	.	.	.	.	.
!	!	!LO:N:acc=#	!	!	!	!	!	!	!	!	!	!	!	!	!
1GG/	et	1Bn\	Et	1G/	Et	1d\	et	.	.	.	.	.	.	.	.
=39-	=39-	=39-	=39-	=39-	=39-	=39-	=39-	=39-	=39-	=39-	=39-	=39-	=39-	=39-	=39-
.	.	.	.	.	.	.	.	00r	.	00r	.	00r	.	00r	.
2C/	ae-	2c\	ae-	2G/	ae-	2e\	ae-	.	.	.	.	.	.	.	.
2.BB-/	-ter-	2.d\	-ter-	2.B-\	-ter-	2.f\	-ter-	.	.	.	.	.	.	.	.
4BB-/	-ni-	4d\	-ni-	4B-\	-ni-	4f\	-ni-	.	.	.	.	.	.	.	.
=40-	=40-	=40-	=40-	=40-	=40-	=40-	=40-	=40-	=40-	=40-	=40-	=40-	=40-	=40-	=40-
2BB-/	-tas	2d\	-tas	2B-\	-tas	2f\	-tas	.	.	.	.	.	.	.	.
2.E-X\	tem-	2.e-X\	tem-	2.B-\	tem-	2.g\	tem-	.	.	.	.	.	.	.	.
4E-\	-po-	4e-\	-po-	4B-\	-po-	4g\	-po-	.	.	.	.	.	.	.	.
2BB-/	-rum	2d\	-rum	2B-\	-rum	2f\	-rum	.	.	.	.	.	.	.	.
=41-	=41-	=41-	=41-	=41-	=41-	=41-	=41-	=41-	=41-	=41-	=41-	=41-	=41-	=41-	=41-
2F\	Al-	2c\	Al-	2A/	Al-	2f\	Al-	0r	.	0r	.	0r	.	0r	.
2G\	-le-	2B-y\	-le-	1B-	-le-	2d\	-le-	.	.	.	.	.	.	.	.
1F	-lu-	1c	-lu-	.	.	1f	-lu-	.	.	.	.	.	.	.	.
.	.	.	.	2A/	-lu-	.	.	.	.	.	.	.	.	.	.
*	*	*	*	*	*	*	*	*	*	*	*	*custos:f	*	*	*
!	!	!	!	!	!	!	!	!	!	!	!	!LO:LB:g=original	!	!	!
=42-	=42-	=42-	=42-	=42-	=42-	=42-	=42-	=42-	=42-	=42-	=42-	=42-	=42-	=42-	=42-
1BB-	-ia	1d	-ia	1B-	-ia	1f	-ia	2r	.	2r	.	2r	.	2r	.
.	.	.	.	.	.	.	.	1D	Al-	1d	Al-	1f	Al-	1b-	Al-
0r	.	0r	.	0r	.	0r	.	.	.	.	.	.	.	.	.
.	.	.	.	.	.	.	.	2F/	-le-	2c/	-le-	2f/	-le-	2a\	-le-
=43-	=43-	=43-	=43-	=43-	=43-	=43-	=43-	=43-	=43-	=43-	=43-	=43-	=43-	=43-	=43-
!	!	!	!	!	!	!	!	!	!	!LO:N:acc=#	!	!	!	!	!
.	.	.	.	.	.	.	.	1G	-lu-	4Bn/	-lu-	1d	-lu-	1g	-lu-
.	.	.	.	.	.	.	.	.	.	2c/	.	.	.	.	.
!	!	!	!	!	!	!	!	!	!	!LO:N:acc=#	!	!	!	!	!
.	.	.	.	.	.	.	.	.	.	4Bn/	.	.	.	.	.
2r	.	2r	.	2r	.	2r	.	1C	-ia	1c	-ia	1e	-ia	1g	-ia
2C/	Lę-	2G/	Lę-	2c\	Lę-	2e\	lę-	.	.	.	.	.	.	.	.
*	*	*custos:A	*	*custos:c	*	*	*	*	*	*	*	*	*	*	*
!	!	!LO:LB:g=original	!	!LO:LB:g=original	!	!	!	!	!	!	!	!	!	!	!
=44-	=44-	=44-	=44-	=44-	=44-	=44-	=44-	=44-	=44-	=44-	=44-	=44-	=44-	=44-	=44-
4F\	-ti-	4A/	-ti-	4c\	-ti-	4f\	-ti-	1r	.	1r	.	1r	.	1r	.
8F\	-ti-	8A/	-ti-	8c\	-ti-	8f\	-ti-	.	.	.	.	.	.	.	.
8F\	-a	8A/	-a	8c\	-a	8f\	-a	.	.	.	.	.	.	.	.
4F\	ſem-	4A/	ſem-	4c\	ſem-	4f\	ſem-	.	.	.	.	.	.	.	.
4E\	-pi-	4G/	-pi-	4c\	-pi-	4g\	-pi-	.	.	.	.	.	.	.	.
*custos:F	*	*	*	*	*	*custos:f	*	*custos:C	*	*	*	*	*	*	*
!LO:LB:g=original	!	!	!	!	!	!LO:LB:g=original	!	!LO:LB:g=original	!	!	!	!	!	!	!
2F\	-ter-	2A/	-ter-	2c\	-ter-	2f\	-ter-	2r	.	2r	.	2r	.	2r	.
2C/	-na	2G/	-na	2c\	-na	2e\	-na	2C/	Lę-	2c/	Lę-	2e/	Lę-	2g/	Lę-
=45-	=45-	=45-	=45-	=45-	=45-	=45-	=45-	=45-	=45-	=45-	=45-	=45-	=45-	=45-	=45-
1r	.	1r	.	1r	.	1r	.	4F/	-ti-	4c/	-ti-	4f/	-ti-	4a\	-ti-
.	.	.	.	.	.	.	.	8F/	-ti-	8c/	-ti-	8f/	-ti-	8a\	-ti-
.	.	.	.	.	.	.	.	8F/	-a	8c/	-a	8f/	-a	8a\	-a
.	.	.	.	.	.	.	.	4F/	ſem-	4c/	ſem-	4f/	ſem-	4a\	ſem-
.	.	.	.	.	.	.	.	4E/	-pi-	4c/	-pi-	4g/	-pi-	4g/	-pi-
2r	.	2r	.	2r	.	2r	.	2F/	-ter-	2c/	-ter-	2a\	-ter-	2f/	-ter-
*	*ij	*	*ij	*	*ij	*	*ij	*	*	*	*	*	*	*	*
!	!	!LO:N:acc=#	!	!	!	!	!	!	!	!LO:N:acc=#	!	!	!	!	!
2GG/	Lę-	2Bn\	Lę-	2G/	Lę-	2d\	lę-	2G\	-na	2Bn/	-na	2g/	-na	2d/	-na
=46-	=46-	=46-	=46-	=46-	=46-	=46-	=46-	=46-	=46-	=46-	=46-	=46-	=46-	=46-	=46-
4C/	-ti-	4c\	-ti-	4G/	-ti-	4e-X\	-ti-	1r	.	1r	.	1r	.	1r	.
8C/	-ti-	8c\	-ti-	8G/	-ti-	8e-\	-ti-	.	.	.	.	.	.	.	.
8C/	-a	8c\	-a	8G/	-a	8e-\	-a	.	.	.	.	.	.	.	.
4C/	ſem-	4c\	ſem-	4G/	ſem-	4e-\	ſem-	.	.	.	.	.	.	.	.
!LO:N:acc=#	!	!	!	!	!	!	!	!	!	!	!	!	!	!	!
4BBn/	-pi-	4d\	-pi-	4G/	-pi-	4d\	-pi-	.	.	.	.	.	.	.	.
2C/	-ter-	2e-X\	-ter-	2G/	-ter-	2c/	-ter-	2r	.	2r	.	2r	.	2r	.
*	*	*	*	*	*	*	*	*	*ij	*	*ij	*	*ij	*	*ij
2D/	-na	2d\	-na	2F#X/	-na	2A/	-na	2D/	Lę-	2d\	Lę-	2f#X/	Lę-	2a\	Lę-
*	*Xij	*	*Xij	*	*Xij	*	*Xij	*	*	*custos:d	*	*	*	*	*
!	!	!	!	!	!	!	!	!	!	!LO:LB:g=original	!	!	!	!	!
=47-	=47-	=47-	=47-	=47-	=47-	=47-	=47-	=47-	=47-	=47-	=47-	=47-	=47-	=47-	=47-
1r	.	1r	.	1r	.	1r	.	4G\	-ti-	4d\	-ti-	4g/	-ti-	4b-\	-ti-
.	.	.	.	.	.	.	.	8G\	-ti-	8d\	-ti-	8g/	-ti-	8b-\	-ti-
.	.	.	.	.	.	.	.	8G\	-a	8d\	-a	8g/	-a	8b-\	-a
.	.	.	.	.	.	.	.	4G\	ſem-	4d\	ſem-	4g/	ſem-	4b-\	ſem-
.	.	.	.	.	.	.	.	4F#X/	-pi-	4d\	-pi-	4a\	-pi-	4a\	-pi-
2r	.	2r	.	2r	.	2r	.	2G\	-ter-	2d\	-ter-	2b-y\	-ter-	2g/	-ter-
2AA/	Lę-	2c#X\	Lę-	2A/	Lę-	2eny\	lę-	2A\	-na	2c#X/	-na	2a\	-na	2eny/	-na
*	*	*	*	*	*	*	*	*	*Xij	*	*Xij	*	*Xij	*	*Xij
=48-	=48-	=48-	=48-	=48-	=48-	=48-	=48-	=48-	=48-	=48-	=48-	=48-	=48-	=48-	=48-
4D/	-ti-	4d\	-ti-	4A/	-ti-	4f\	-ti-	1r	.	1r	.	1r	.	1r	.
8D/	-ti-	8d\	-ti-	8A/	-ti-	8f\	-ti-	.	.	.	.	.	.	.	.
8D/	-a	8d\	-a	8A/	-a	8f\	-a	.	.	.	.	.	.	.	.
4D/	ſem-	4A/	ſem-	4D/	ſem-	4f\	ſem-	.	.	.	.	.	.	.	.
4C#X/	-pi-	4A/	-pi-	4E/	-pi-	4e\	-pi-	.	.	.	.	.	.	.	.
*	*	*	*	*	*	*	*	*	*	*	*	*	*	*custos:g	*
!	!	!	!	!	!	!	!	!	!	!	!	!	!	!LO:LB:g=original	!
2D/	-ter-	2A/	-ter-	2F#X/	-ter-	2d\	-ter-	2r	.	2r	.	2r	.	2r	.
!	!	!LO:N:acc=#	!	!	!	!	!	!	!	!LO:SIC:s=1Bi	!	!LO:N:acc=#	!	!	!
2GG/	-na	2Bn\	-na	2G/	-na	2d\	-na	1G\	ſu-	1B-y/	ſu-	1bn\	ſu-	1g\	ſu-
*	*	*custos:G	*	*	*	*	*	*	*	*	*	*	*	*	*
!	!	!LO:LB:g=original	!	!	!	!	!	!	!	!	!	!	!	!	!
=49-	=49-	=49-	=49-	=49-	=49-	=49-	=49-	=49-	=49-	=49-	=49-	=49-	=49-	=49-	=49-
0r	.	0r	.	0r	.	0r	.	.	.	.	.	.	.	.	.
.	.	.	.	.	.	.	.	2E/	-per	2G/	-per	2cc\	-per	2g/	-per
*	*	*	*	*	*	*	*	*	*	*	*	*custos:a	*	*	*
!	!	!	!	!	!	!	!	!	!	!	!	!LO:LB:g=original	!	!	!
.	.	.	.	.	.	.	.	4.Fny/	ca-	4.cny/	ca-	4.a\	ca-	4.f/	ca-
.	.	.	.	.	.	.	.	8F/	-pi-	8c/	-pi-	8a\	-pi-	8f/	-pi-
.	.	.	.	.	.	.	.	4G\	-ta	4B-/	-ta	2.g/	-ta	4d/	-ta
.	.	.	.	.	.	.	.	4G\	e-	2d\	e-	.	.	4B-/	e-
*	*	*	*	*custos:d	*	*	*	*	*	*	*	*	*	*	*
!	!	!	!	!LO:LB:g=original	!	!	!	!	!	!	!	!	!	!	!
=50-	=50-	=50-	=50-	=50-	=50-	=50-	=50-	=50-	=50-	=50-	=50-	=50-	=50-	=50-	=50-
2r	.	2r	.	2r	.	2r	.	2A\	-o-	.	.	.	.	2c/	-o-
.	.	.	.	.	.	.	.	.	.	2c/	-o-	4fny/	e-	.	.
*	*ij	*	*ij	*	*ij	*	*ij	*	*	*	*	*	*	*	*
2GG/	Lę-	2G/	Lę-	2d\	Lę-	2d\	lę-	2G\	-rum	.	.	2g/	-o-	2d/	-rum
!	!	!	!	!	!	!	!	!	!	!LO:N:acc=#	!	!	!	!	!
.	.	.	.	.	.	.	.	.	.	4Bn/	.	.	.	.	.
*custos:C	*	*	*	*	*	*	*	*	*	*	*	*	*	*	*
!LO:LB:g=original	!	!	!	!	!	!	!	!	!	!	!	!	!	!	!
4Cny/	-ti-	4G/	-ti-	4c\	-ti-	4e-X\	-ti-	1r	.	2c/	-rum	1g	-rum	1r	.
8C/	-ti-	8G/	-ti-	8c\	-ti-	8e-\	-ti-	.	.	.	.	.	.	.	.
8C/	-a	8G/	-a	8c\	-a	8e-\	-a	.	.	.	.	.	.	.	.
*	*	*	*	*	*	*custos:e	*	*	*	*	*	*	*	*	*
!	!	!	!	!	!	!LO:LB:g=original	!	!	!	!	!	!	!	!	!
4C/	ſem-	4G/	ſem-	4c\	ſem-	4e-\	ſem-	.	.	2r	.	.	.	.	.
!LO:N:acc=#	!	!	!	!	!	!	!	!	!	!	!	!	!	!	!
4BBn/	-pi-	4G/	-pi-	4d\	-pi-	4d\	-pi-	.	.	.	.	.	.	.	.
*	*	*	*	*	*	*	*	*custos:G	*	*	*	*	*	*	*
!	!	!	!	!	!	!	!	!LO:LB:g=original	!	!	!	!	!	!	!
=51-	=51-	=51-	=51-	=51-	=51-	=51-	=51-	=51-	=51-	=51-	=51-	=51-	=51-	=51-	=51-
2C/	-ter-	2G/	-ter-	2e-X\	-ter-	2c/	-ter-	2r	.	2r	.	2r	.	2r	.
*	*	*	*	*	*	*	*	*	*ij	*	*	*	*ij	*	*ij
!	!	!	!	!	!	!LO:N:acc=#	!	!	!	!	!	!	!	!LO:N:acc=#	!
2GG/	-na	2G/	-na	2d\	-na	2Bn/	-na	1G	ſu-	1d	ſu-	1g	ſu-	1bn	ſu-
*	*Xij	*	*Xij	*	*Xij	*	*Xij	*	*	*	*	*	*	*	*
1r	.	1r	.	1r	.	1r	.	.	.	.	.	.	.	.	.
.	.	.	.	.	.	.	.	2E/	-per	2c/	-per	2g/	-per	2ccny\	-per
=52-	=52-	=52-	=52-	=52-	=52-	=52-	=52-	=52-	=52-	=52-	=52-	=52-	=52-	=52-	=52-
0r	.	0r	.	0r	.	0r	.	4.F/	ca-	4.c/	ca-	2.f/	ca-	4.a\	ca-
.	.	.	.	.	.	.	.	8F/	-pi-	8c/	-pi-	.	.	8a\	-pi-
.	.	.	.	.	.	.	.	4D/	-ta	2d\	-ta	.	.	4b-y\	-ta
.	.	.	.	.	.	.	.	4D/	e-	.	.	4f/	-pi-	2a\	e-
.	.	.	.	.	.	.	.	2E-X/	-o-	2G/	e-	4B-/	-ta	.	.
.	.	.	.	.	.	.	.	.	.	.	.	4c/	e-	2g/	-o-
.	.	.	.	.	.	.	.	2D/	-rum	2A/	-o-	2d/	-o-	.	.
.	.	.	.	.	.	.	.	.	.	.	.	.	.	4f#X/	.
*	*	*	*	*	*	*	*	*	*Xij	*custos:G	*	*	*	*	*
!	!	!	!	!	!	!	!	!	!	!LO:LB:g=original	!	!	!	!	!
=53-	=53-	=53-	=53-	=53-	=53-	=53-	=53-	=53-	=53-	=53-	=53-	=53-	=53-	=53-	=53-
*M3/2	*	*M3/2	*	*M3/2	*	*M3/2	*	*M3/2	*	*M3/2	*	*M3/2	*	*M3/2	*
*met(O|)	*	*met(O|)	*	*met(O|)	*	*met(O|)	*	*met(O|)	*	*met(O|)	*	*met(O|)	*	*met(O|)	*
!LO:TX:t=P:problem=oznaczenie menzuralne O| 3/2	!	!LO:TX:t=P:problem=oznaczenie menzuralne O| 3/2	!	!LO:TX:t=P:problem=oznaczenie menzuralne O| 3/2	!	!LO:TX:t=P:problem=oznaczenie menzuralne O| 3/2	!	!LO:TX:t=P:problem=oznaczenie menzuralne O| 3/2	!	!LO:TX:t=P:problem=oznaczenie menzuralne O| 3/2	!	!LO:TX:t=P:problem=oznaczenie menzuralne O| 3/2	!	!LO:TX:t=P:problem=oznaczenie menzuralne O| 3/2	!
1.G	Gau-	1.B-y	Gau-	1.G	Gau-	1.d	Gau-	00.r	.	0G	-rum	0.d	-rum	0g	-rum
*	*	*	*	*	*	*	*	*	*	*	*	*	*Xij	*	*Xij
2G\	-di-	2G/	-di-	2B-\	-di-	2d\	-di-	.	.	.	.	.	.	.	.
1F	-um	1A	-um	1A	-um	1d	-um	.	.	1r	.	.	.	1r	.
=54-	=54-	=54-	=54-	=54-	=54-	=54-	=54-	=54-	=54-	=54-	=54-	=54-	=54-	=54-	=54-
0E-X	et	0B-	et	0G	et	0g	et	.	.	0.r	.	0.r	.	0.r	.
1E-	e-	1cny	e-	1G	e-	1g	e-	.	.	.	.	.	.	.	.
=55-	=55-	=55-	=55-	=55-	=55-	=55-	=55-	=55-	=55-	=55-	=55-	=55-	=55-	=55-	=55-
1D	-xul-	1d	-xul-	1A	-xul-	1f	-xul-	00.r	.	00.r	.	00.r	.	00.r	.
1C	-ta-	1G	-ta-	1c	-ta-	1e-X	-ta-	.	.	.	.	.	.	.	.
1BB-y	-ti-	1B-	-ti-	1d	-ti-	1f	-ti-	.	.	.	.	.	.	.	.
=56-	=56-	=56-	=56-	=56-	=56-	=56-	=56-	=56-	=56-	=56-	=56-	=56-	=56-	=56-	=56-
0F	-o-	0A	-o-	0c	-o-	0f	-o-	.	.	.	.	.	.	.	.
1BB-	-nem	1B-	-nem	1B-	-nem	1f	-nem	.	.	.	.	.	.	.	.
=57-	=57-	=57-	=57-	=57-	=57-	=57-	=57-	=57-	=57-	=57-	=57-	=57-	=57-	=57-	=57-
00.r	.	00.r	.	00.r	.	00.r	.	1.B-	Gau-	1.d	Gau-	1.dd	Gau-	1.fny	Gau-
.	.	.	.	.	.	.	.	2B-\	-di-	2B-y/	-di-	2dd\	-di-	2f/	-di-
.	.	.	.	.	.	.	.	1A	-um	1c	-um	1cc	-um	1f	-um
*	*	*	*	*	*	*	*	*	*	*	*	*	*	*custos:g	*
!	!	!	!	!	!	!	!	!	!	!	!	!	!	!LO:LB:g=original	!
=58-	=58-	=58-	=58-	=58-	=58-	=58-	=58-	=58-	=58-	=58-	=58-	=58-	=58-	=58-	=58-
*	*	*	*	*	*	*	*	*	*	*col	*	*	*	*	*
.	.	.	.	.	.	.	.	0G	et	0d	et	0b-y	et	0g	et
.	.	.	.	.	.	.	.	1G	e-	1d	e-	1b-	e-	1g	e-
*	*	*	*	*	*	*	*	*	*	*Xcol	*	*	*	*	*
=59-	=59-	=59-	=59-	=59-	=59-	=59-	=59-	=59-	=59-	=59-	=59-	=59-	=59-	=59-	=59-
00.r	.	00.r	.	00.r	.	00.r	.	1F	-xul-	1d	-xul-	1a	-xul-	1a	-xul-
.	.	.	.	.	.	.	.	1E-X	-ta-	1G	-ta-	1g	-ta-	1b-	-ta-
.	.	.	.	.	.	.	.	1D	-ti-	0B-	-ti-	1f	-ti-	1b-	-ti-
*	*	*	*	*	*	*	*	*	*	*	*	*custos:e	*	*	*
!	!	!	!	!	!	!	!	!	!	!	!	!LO:LB:g=original	!	!	!
=60-	=60-	=60-	=60-	=60-	=60-	=60-	=60-	=60-	=60-	=60-	=60-	=60-	=60-	=60-	=60-
.	.	.	.	.	.	.	.	0C	-o-	.	.	0e-X	-o-	0cc	-o-
.	.	.	.	.	.	.	.	.	.	1A	-o-	.	.	.	.
.	.	.	.	.	.	.	.	1BB-	-nem	1B-	-nem	1d	-nem	1f	-nem
*custos:GG	*	*	*	*custos:G	*	*	*	*	*	*	*	*	*	*	*
!LO:LB:g=original	!	!	!	!LO:LB:g=original	!	!	!	!	!	!	!	!	!	!	!
=61-	=61-	=61-	=61-	=61-	=61-	=61-	=61-	=61-	=61-	=61-	=61-	=61-	=61-	=61-	=61-
*M2/1	*	*M2/1	*	*M2/1	*	*M2/1	*	*M2/1	*	*M2/1	*	*M2/1	*	*M2/1	*
*met(C)	*	*met(C)	*	*met(C)	*	*met(C)	*	*met(C)	*	*met(C)	*	*met(C)	*	*met(C)	*
00r	.	00r	.	00r	.	00r	.	2.BB-/	ob-	4B-/	ob-	2r	.	2r	.
.	.	.	.	.	.	.	.	.	.	4c/	.	.	.	.	.
*	*	*	*	*	*	*	*	*	*	*	*	*	*	*lig	*
.	.	.	.	.	.	.	.	.	.	4d\	.	2.f/	ob-	1b-	ob-
.	.	.	.	.	.	.	.	4C/	.	4e\	.	.	.	.	.
.	.	.	.	.	.	.	.	4D/	.	1.fny	.	.	.	.	.
.	.	.	.	.	.	.	.	4Eny/	.	.	.	4g/	.	.	.
.	.	.	.	.	.	.	.	4F/	.	.	.	4a\	.	1a\	.
.	.	.	.	.	.	.	.	4G\	.	.	.	4b-\	.	.	.
*	*	*	*	*	*	*	*	*custos:A	*	*	*	*	*	*Xlig	*
!	!	!	!	!	!	!	!	!LO:LB:g=original	!	!	!	!	!	!	!
=62-	=62-	=62-	=62-	=62-	=62-	=62-	=62-	=62-	=62-	=62-	=62-	=62-	=62-	=62-	=62-
.	.	.	.	.	.	.	.	2A\	.	.	.	2cc\	.	.	.
.	.	.	.	.	.	.	.	2B-\	-ti-	2d\	-ti-	1dd	-ti-	2g/	-ti-
.	.	.	.	.	.	.	.	1A	-ne-	1e	-ne-	.	.	1a	-ne-
.	.	.	.	.	.	.	.	.	.	.	.	2cc#X\	-ne-	.	.
=63-	=63-	=63-	=63-	=63-	=63-	=63-	=63-	=63-	=63-	=63-	=63-	=63-	=63-	=63-	=63-
2r	.	2r	.	4G/	ob-	2r	.	1G	-bunt	1g	-bunt	1dd	-bunt	1b-	-bunt
.	.	.	.	4A/	.	.	.	.	.	.	.	.	.	.	.
2.GG/	ob-	4G/	ob-	4B-\	.	1g	ob-	.	.	.	.	.	.	.	.
.	.	4A/	.	4c\	.	.	.	.	.	.	.	.	.	.	.
*	*	*custos:B	*	*	*	*	*	*	*	*	*	*	*	*	*
!	!	!LO:LB:g=original	!	!	!	!	!	!	!	!	!	!	!	!	!
.	.	4B-\	.	1.d	.	.	.	2r	.	2.d\	ob-	2r	.	2r	.
4AA/	.	4c\	.	.	.	.	.	.	.	.	.	.	.	.	.
*	*	*	*	*	*	*	*	*	*ij	*	*	*	*	*	*
4BB-/	.	1d\	.	.	.	4f\	.	1D/	ob-	.	.	1dd\	ob-	1b-\	ob-
4C/	.	.	.	.	.	4eny\	.	.	.	4e\	.	.	.	.	.
*	*	*	*	*	*	*	*	*	*	*custos:f	*	*	*	*	*
!	!	!	!	!	!	!	!	!	!	!LO:LB:g=original	!	!	!	!	!
=64-	=64-	=64-	=64-	=64-	=64-	=64-	=64-	=64-	=64-	=64-	=64-	=64-	=64-	=64-	=64-
2D/	.	.	.	.	.	2d\	.	.	.	2f\	.	.	.	.	.
2GG/	-ti-	2B-\	-ti-	2d\	-ti-	2d\	-ti-	2G\	-ti-	1g	-ti-	2dd\	-ti-	2g/	-ti-
*	*	*	*	*	*	*custos:d	*	*	*	*	*	*	*	*	*
!	!	!	!	!	!	!LO:LB:g=original	!	!	!	!	!	!	!	!	!
1D	-ne-	1A	-ne-	1d	-ne-	0d	-ne-	1D	-ne-	.	.	1dd	-ne-	1a	-ne-
.	.	.	.	.	.	.	.	.	.	2f#X\	-ne-	.	.	.	.
=65-	=65-	=65-	=65-	=65-	=65-	=65-	=65-	=65-	=65-	=65-	=65-	=65-	=65-	=65-	=65-
!	!	!	!	!LO:N:acc=#	!	!	!	!	!	!	!	!	!	!LO:N:acc=#	!
0GG	-bunt	0G	-bunt	0Bn	-bunt	.	.	1G	-bunt	1g	-bunt	1dd	-bunt	1bn	-bunt
*	*	*	*	*	*	*	*	*	*Xij	*	*	*	*	*	*
.	.	.	.	.	.	1d	-bunt	1r	.	1r	.	1r	.	1r	.
=66-	=66-	=66-	=66-	=66-	=66-	=66-	=66-	=66-	=66-	=66-	=66-	=66-	=66-	=66-	=66-
!	!	!	!	!	!	!	!	!	!	!	!	!	!	!LO:N:acc=#	!
0r	.	0r	.	0r	.	0r	.	2G\	Al-	2d\	Al-	2g/	Al-	2bn\	Al-
.	.	.	.	.	.	.	.	4G\	-le-	4d\	-le-	4g/	-le-	4b\	-le-
.	.	.	.	.	.	.	.	4E/	-lu-	4c/	-lu-	4g/	-lu-	4cc\	-lu-
.	.	.	.	.	.	.	.	4F/	-ia	4c/	-ia	4f/	-ia	4a\	-ia
*	*	*	*	*	*	*	*	*	*ij	*	*ij	*	*ij	*	*ij
.	.	.	.	.	.	.	.	4F/	Al-	4c/	Al-	4f/	Al-	4a\	Al-
.	.	.	.	.	.	.	.	4F/	-le-	4c/	-le-	4f/	-le-	4a\	-le-
!	!	!	!	!	!	!	!	!	!	!LO:N:acc=#	!	!	!	!	!
.	.	.	.	.	.	.	.	4G\	-lu-	4Bn/	-lu-	4d/	-lu-	4g/	-lu-
*	*	*	*	*	*	*	*	*	*	*	*	*	*	*custos:g	*
!	!	!	!	!	!	!	!	!	!	!	!	!	!	!LO:LB:g=original	!
=67-	=67-	=67-	=67-	=67-	=67-	=67-	=67-	=67-	=67-	=67-	=67-	=67-	=67-	=67-	=67-
2C/	Al-	2G/	Al-	2c\	Al-	2e\	Al-	2C/	-ia	2c/	-ia	2eny/	-ia	2g/	-ia
*	*	*	*	*	*	*	*	*	*Xij	*	*Xij	*	*Xij	*	*Xij
4C/	-le-	4G/	-le-	4c\	-le-	4e\	-le-	2r	.	2r	.	2r	.	2r	.
4AA/	-lu-	4A/	-lu-	4c\	-lu-	4f\	-lu-	.	.	.	.	.	.	.	.
4BB-/	-ia	4Fny/	-ia	4B-y\	-ia	4d\	-ia	1r	.	1r	.	1r	.	1r	.
*	*ij	*	*ij	*	*ij	*	*ij	*	*	*	*	*	*	*	*
4BB-/	Al-	4F/	Al-	4d\	Al-	4f\	Al-	.	.	.	.	.	.	.	.
4BB-/	-le-	4G/	-le-	4d\	-le-	4f\	-le-	.	.	.	.	.	.	.	.
4C/	-lu-	4G/	-lu-	4c\	-lu-	4e\	-lu-	.	.	.	.	.	.	.	.
*	*	*	*	*	*	*	*	*	*	*	*	*custos:f	*	*	*
!	!	!	!	!	!	!	!	!	!	!	!	!LO:LB:g=original	!	!	!
=68-	=68-	=68-	=68-	=68-	=68-	=68-	=68-	=68-	=68-	=68-	=68-	=68-	=68-	=68-	=68-
1FF	-ia	1A	-ia	1c	-ia	1f	-ia	2F/	Al-	2c/	Al-	2f/	Al-	2a\	Al-
*	*Xij	*	*Xij	*	*Xij	*	*Xij	*	*	*	*	*	*	*	*
.	.	.	.	.	.	.	.	4F/	-le-	4c/	-le-	4f/	-le-	4a\	-le-
.	.	.	.	.	.	.	.	4F/	-lu-	4c/	-lu-	4f/	-lu-	4a\	-lu-
1r	.	1r	.	1r	.	1r	.	4G\	-ia	4B-y/	-ia	4d/	-ia	4g/	-ia
*	*	*	*	*	*	*	*	*	*ij	*	*ij	*	*ij	*	*ij
.	.	.	.	.	.	.	.	4E-X/	Al-	4G/	Al-	4e-X/	Al-	4g/	Al-
.	.	.	.	.	.	.	.	4E-/	-le-	4G/	-le-	4c/	-le-	4g/	-le-
.	.	.	.	.	.	.	.	4D/	-lu-	4A/	-lu-	4d/	-lu-	4f#X/	-lu-
=69-	=69-	=69-	=69-	=69-	=69-	=69-	=69-	=69-	=69-	=69-	=69-	=69-	=69-	=69-	=69-
2r	.	2r	.	2r	.	2r	.	2G\	-ia	2B-/	-ia	2d/	-ia	2g/	-ia
*	*	*	*	*	*	*	*	*	*Xij	*	*Xij	*	*	*	*
!	!	!	!	!	!	!	!	!	!	!	!	!	!	!LO:N:acc=#	!
1GG	Al-	1D	Al-	1d	Al-	1g	Al-	1G	Al-	1d	Al-	1dd	Al-	1bn	Al-
2GG/	-le-	2.G/	-le-	2G/	-le-	2g\	-le-	2G\	-le-	2d\	-le-	2dd\	-le-	2b\	-le-
=70-	=70-	=70-	=70-	=70-	=70-	=70-	=70-	=70-	=70-	=70-	=70-	=70-	=70-	=70-	=70-
0C	-lu-	.	.	0G	-lu-	0g	-lu-	0C	-lu-	0e-X	-lu-	0ccny	-lu-	0cc	-lu-
.	.	4F/	.	.	.	.	.	.	.	.	.	.	.	.	.
.	.	4E-X/	.	.	.	.	.	.	.	.	.	.	.	.	.
.	.	4D/	.	.	.	.	.	.	.	.	.	.	.	.	.
.	.	2C/	.	.	.	.	.	.	.	.	.	.	.	.	.
.	.	1G/	-lu-	.	.	.	.	.	.	.	.	.	.	.	.
=71-	=71-	=71-	=71-	=71-	=71-	=71-	=71-	=71-	=71-	=71-	=71-	=71-	=71-	=71-	=71-
!	!	!	!	!	!	!	!	!	!	!	!	!LO:N:acc=#	!	!	!
[0GGl	-ia.	.	.	[0Gl	-ia.	[0gl	-ia.	[0Gl	-ia.	[0dl	-ia.	[0bnl	-ia	[0ddl	-ia
*	*	*	*	*	*	*	*	*	*	*	*	*	*Xij	*	*Xij
.	.	4F/	.	.	.	.	.	.	.	.	.	.	.	.	.
!	!	!LO:SIC:s=4E-i	!	!	!	!	!	!	!	!	!	!	!	!	!
.	.	4Eny/	.	.	.	.	.	.	.	.	.	.	.	.	.
.	.	1D	.	.	.	.	.	.	.	.	.	.	.	.	.
=72-	=72-	=72-	=72-	=72-	=72-	=72-	=72-	=72-	=72-	=72-	=72-	=72-	=72-	=72-	=72-
0GG]	.	0Dl	-ia.	0G]	.	0g]	.	0G]	.	0d]	.	0b]	.	0dd]	.
!LO:TX:b:i:t=F I N I S.	!	!	!	!	!	!	!	!LO:TX:b:i:t=F I N I S.	!	!	!	!LO:N:acc=#	!	!LO:TX:b:i:t=F I N I S.	!
==	==	==	==	==	==	==	==	==	==	==	==	==	==	==	==
*-	*-	*-	*-	*-	*-	*-	*-	*-	*-	*-	*-	*-	*-	*-	*-
!!!system-decoration: [(g1)][(g2)]
!!!RDF**kern: l = terminal long
!!!ENC: Mateusz Solarz
!!!END: 2022-07-15
!!!ENC: Andrzej Kubiczek
!!!END: 2022-08-12
